X: 32759
T: Polska Från Härjedalen
R: waltz
M: 3/4
K: Gminor
D|:GA B2 GA|Bc d2 Bc|d=e f2 ed|1 dc d3D:|2 dc d4 ]|
|:d2 g2 f2|d2 ce d2|d2 B2 A2|A2 GB d2|
d2 g2 f2|d2 ce d2|d2 B2 A2|AG G4:|

